X:1
T:Title
%%score { ( 1 3 ) | ( 2 4 5 ) }
L:1/8
M:4/4
K:C
V:1 treble nm="Grand Piano"
V:3 treble 
V:2 bass 
V:4 bass 
V:5 bass 
V:1
 z4 z2[Q:1/4=106] E>F | G G3 A3 G | G F3- F2 D>F | B3 A G2 F2 |[M:3/4] E6 |[M:1/4] E>F | %6
[M:4/4] G3 G A2 E2 | G F3- F2 F>F | d3 A c3 ^F |[M:3/4] G6 |[M:1/4] G>G |[M:4/4] B3 B A2 G2 | %12
 G c3- c2 G>G | d3 B G2 F2 |[M:3/4] E6 |[M:1/4] E>F |[M:4/4] G3 c d2 c2 | c A3- A2 B>A | %18
[M:5/4] G3 E G3 F3 |[M:3/4] E6 |[M:1/4] c>E |[M:4/4] .G2 D>D D<D B>A |[M:3/4] z c- c4 | %23
[M:1/4] [CEG]>[CG] |[M:4/4] [CFA]2 [A,FA]2 [^Fd]3 F | z2 E2 F2 e>d |[M:3/4] z G- G4 |[M:1/4] G>_B | %28
[M:4/4] z A3- A2 z2 |[M:19/16] G-<Ge-<ed/-d/-d/-d/-d/-d-<dB |[M:3/4] [Ec]6 |] %31
V:2
 z4 z2 C,2 | C,8 | D,6 z2 | G,,8 |[M:3/4] C,6 |[M:1/4] z2 |[M:4/4] C,8 | G,8 | D,8 |[M:3/4] G,,6 | %10
[M:1/4] z2 |[M:4/4] G,,8 | C,8 | G,,8 |[M:3/4] C,6 |[M:1/4] z2 |[M:4/4] C,4 F,2 A,2 | F,8 | %18
[M:5/4] G,2- G,2- G,4- G, z |[M:3/4] C,6 |[M:1/4] z2 |[M:4/4] z2 [G,B,]>[G,B,] [G,B,]<[G,B,] z2 | %22
[M:3/4] z2 C,>C, C,<C, |[M:1/4] C,>E, |[M:4/4] F,2 F,2 [D,A,]3 [D,CD] | G,6 z2 | %26
[M:3/4] z E- E4[K:bass] |[M:1/4][K:treble] E>G |[M:4/4] z[K:bass] F3- F2 z2 | %29
[M:19/16][K:treble] [G,CE]-<[G,CE][G,CG]-<[G,CG][G,B,F]/-[G,B,F]/-[G,B,F]/-[G,B,F]/-[G,B,F]/-[G,B,F]-<[G,B,F][G,DF] | %30
[M:3/4][K:bass] [C,C]6 |] %31
V:3
 x8 | x8 | x8 | x8 |[M:3/4] x6 |[M:1/4] x2 |[M:4/4] x8 | x8 | x8 |[M:3/4] x6 |[M:1/4] x2 | %11
[M:4/4] x8 | x8 | x8 |[M:3/4] x6 |[M:1/4] x2 |[M:4/4] x8 | x8 |[M:5/4] x10 |[M:3/4] x6 | %20
[M:1/4] x2 |[M:4/4] z F3- F2 z2 |[M:3/4] .G2 [EG]>[EG] [EG]<[EG] |[M:1/4] x2 |[M:4/4] x8 | G6 z2 | %26
[M:3/4] .c2 C,>C C<C |[M:1/4] x2 |[M:4/4] ._B2 C>C C<C c>A |[M:19/16] x19/2 |[M:3/4] x6 |] %31
V:4
 x8 | x8 | x8 | x8 |[M:3/4] x6 |[M:1/4] x2 |[M:4/4] x8 | x8 | x8 |[M:3/4] x6 |[M:1/4] x2 | %11
[M:4/4] x8 | x8 | x8 |[M:3/4] x6 |[M:1/4] x2 |[M:4/4] x8 | x8 |[M:5/4] x10 |[M:3/4] x6 | %20
[M:1/4] x2 |[M:4/4] x8 |[M:3/4] x6 |[M:1/4] x2 |[M:4/4] x8 | z2 C6- |[M:3/4] C4[K:bass] z2 | %27
[M:1/4][K:treble] x2 |[M:4/4] .G2[K:bass] F,>F, F,<F, [^F,A,_E]>[F,CE] |[M:19/16][K:treble] x19/2 | %30
[M:3/4][K:bass] x6 |] %31
V:5
 x8 | x8 | x8 | x8 |[M:3/4] x6 |[M:1/4] x2 |[M:4/4] x8 | x8 | x8 |[M:3/4] x6 |[M:1/4] x2 | %11
[M:4/4] x8 | x8 | x8 |[M:3/4] x6 |[M:1/4] x2 |[M:4/4] x8 | x8 |[M:5/4] x10 |[M:3/4] x6 | %20
[M:1/4] x2 |[M:4/4] x8 |[M:3/4] x6 |[M:1/4] x2 |[M:4/4] x8 | [B,D]2 z2 D2 G>F | %26
[M:3/4] .E2 z z/[K:bass] C,/ C,<C, |[M:1/4][K:treble] x2 |[M:4/4] x[K:bass] x7 | %29
[M:19/16][K:treble] x19/2 |[M:3/4][K:bass] x6 |] %31

